static/img/kroki/8100ddc09158dd7a7eff694bd0ccce2b.svg

<?xml version="1.0" encoding="us-ascii" standalone="no"?><svg xmlns="http://www.w3.org/2000/svg" xmlns:xlink="http://www.w3.org/1999/xlink" contentStyleType="text/css" height="741px" preserveAspectRatio="none" style="width:479px;height:741px;" version="1.1" viewBox="0 0 479 741" width="479px" zoomAndPan="magnify"><defs/><g><!--class digitalocean_floating_ip--><g id="elem_digitalocean_floating_ip"><rect codeLine="22" fill="#3D176E" height="74.0859" id="digitalocean_floating_ip" rx="2.5" ry="2.5" style="stroke:#000D19;stroke-width:0.5;" width="240" x="122.5" y="660.14"/><ellipse cx="137.5" cy="680.0345" fill="#ADD1B2" rx="11" ry="11" style="stroke:#181818;stroke-width:1.0;"/><path d="M140.4688,685.6752 Q139.8906,685.972 139.25,686.1127 Q138.6094,686.2689 137.9063,686.2689 Q135.4063,686.2689 134.0781,684.6283 Q132.7656,682.972 132.7656,679.847 Q132.7656,676.722 134.0781,675.0658 Q135.4063,673.4095 137.9063,673.4095 Q138.6094,673.4095 139.25,673.5658 Q139.9063,673.722 140.4688,674.0189 L140.4688,676.7377 Q139.8438,676.1595 139.25,675.8939 Q138.6563,675.6127 138.0313,675.6127 Q136.6875,675.6127 136,676.6908 Q135.3125,677.7533 135.3125,679.847 Q135.3125,681.9408 136,683.0189 Q136.6875,684.0814 138.0313,684.0814 Q138.6563,684.0814 139.25,683.8158 Q139.8438,683.5345 140.4688,682.9564 L140.4688,685.6752 Z " fill="#000000"/><text fill="#D9B8FF" font-family="Helvetica" font-size="17" lengthAdjust="spacing" textLength="198" x="156.5" y="685.9198">digitalocean_floating_ip</text><line style="stroke:#000D19;stroke-width:0.5;" x1="123.5" x2="361.5" y1="699.9291" y2="699.9291"/><text fill="#D9B8FF" font-family="sans-serif" font-size="14" font-weight="bold" lengthAdjust="spacing" textLength="72" x="133.5" y="721.9242">is_locked</text><text fill="#D9B8FF" font-family="sans-serif" font-size="14" lengthAdjust="spacing" textLength="65" x="205.5" y="721.9242">: boolean</text></g><!--class digitalocean_resource--><g id="elem_digitalocean_resource"><rect codeLine="25" fill="#3D176E" height="74.0859" id="digitalocean_resource" rx="2.5" ry="2.5" style="stroke:#000D19;stroke-width:0.5;" width="223" x="7" y="451.91"/><ellipse cx="22" cy="471.8045" fill="#ADD1B2" rx="11" ry="11" style="stroke:#181818;stroke-width:1.0;"/><path d="M24.9688,477.4452 Q24.3906,477.742 23.75,477.8827 Q23.1094,478.0389 22.4063,478.0389 Q19.9063,478.0389 18.5781,476.3983 Q17.2656,474.742 17.2656,471.617 Q17.2656,468.492 18.5781,466.8358 Q19.9063,465.1795 22.4063,465.1795 Q23.1094,465.1795 23.75,465.3358 Q24.4063,465.492 24.9688,465.7889 L24.9688,468.5077 Q24.3438,467.9295 23.75,467.6639 Q23.1563,467.3827 22.5313,467.3827 Q21.1875,467.3827 20.5,468.4608 Q19.8125,469.5233 19.8125,471.617 Q19.8125,473.7108 20.5,474.7889 Q21.1875,475.8514 22.5313,475.8514 Q23.1563,475.8514 23.75,475.5858 Q24.3438,475.3045 24.9688,474.7264 L24.9688,477.4452 Z " fill="#000000"/><text fill="#D9B8FF" font-family="Helvetica" font-size="17" lengthAdjust="spacing" textLength="181" x="41" y="477.6898">digitalocean_resource</text><line style="stroke:#000D19;stroke-width:0.5;" x1="8" x2="229" y1="491.6991" y2="491.6991"/><text fill="#D9B8FF" font-family="sans-serif" font-size="14" font-weight="bold" lengthAdjust="spacing" textLength="27" x="18" y="513.6942">urn</text><text fill="#D9B8FF" font-family="sans-serif" font-size="14" lengthAdjust="spacing" textLength="48" x="45" y="513.6942">: string</text></g><!--class ip_address--><g id="elem_ip_address"><rect codeLine="28" fill="#3D176E" height="100.3828" id="ip_address" rx="2.5" ry="2.5" style="stroke:#000D19;stroke-width:0.5;" width="208" x="264.5" y="438.76"/><ellipse cx="315.75" cy="458.6545" fill="#ADD1B2" rx="11" ry="11" style="stroke:#181818;stroke-width:1.0;"/><path d="M318.7188,464.2952 Q318.1406,464.592 317.5,464.7327 Q316.8594,464.8889 316.1563,464.8889 Q313.6563,464.8889 312.3281,463.2483 Q311.0156,461.592 311.0156,458.467 Q311.0156,455.342 312.3281,453.6858 Q313.6563,452.0295 316.1563,452.0295 Q316.8594,452.0295 317.5,452.1858 Q318.1563,452.342 318.7188,452.6389 L318.7188,455.3577 Q318.0938,454.7795 317.5,454.5139 Q316.9063,454.2327 316.2813,454.2327 Q314.9375,454.2327 314.25,455.3108 Q313.5625,456.3733 313.5625,458.467 Q313.5625,460.5608 314.25,461.6389 Q314.9375,462.7014 316.2813,462.7014 Q316.9063,462.7014 317.5,462.4358 Q318.0938,462.1545 318.7188,461.5764 L318.7188,464.2952 Z " fill="#000000"/><text fill="#D9B8FF" font-family="Helvetica" font-size="17" lengthAdjust="spacing" textLength="87" x="341.25" y="464.5398">ip_address</text><line style="stroke:#000D19;stroke-width:0.5;" x1="265.5" x2="471.5" y1="478.5491" y2="478.5491"/><text fill="#D9B8FF" font-family="sans-serif" font-size="14" font-weight="bold" lengthAdjust="spacing" textLength="85" x="275.5" y="500.5442">ip_address</text><text fill="#D9B8FF" font-family="sans-serif" font-size="14" lengthAdjust="spacing" textLength="48" x="360.5" y="500.5442">: string</text><text fill="#D9B8FF" font-family="sans-serif" font-size="14" font-weight="bold" lengthAdjust="spacing" textLength="138" x="275.5" y="526.8411">ip_address_family</text><text fill="#D9B8FF" font-family="sans-serif" font-size="14" lengthAdjust="spacing" textLength="48" x="413.5" y="526.8411">: string</text></g><!--class resource--><g id="elem_resource"><rect codeLine="32" fill="#3D176E" height="310.7578" id="resource" rx="2.5" ry="2.5" style="stroke:#000D19;stroke-width:0.5;" width="227" x="129" y="7"/><ellipse cx="197.75" cy="26.8945" fill="#ADD1B2" rx="11" ry="11" style="stroke:#181818;stroke-width:1.0;"/><path d="M200.7188,32.5352 Q200.1406,32.832 199.5,32.9727 Q198.8594,33.1289 198.1563,33.1289 Q195.6563,33.1289 194.3281,31.4883 Q193.0156,29.832 193.0156,26.707 Q193.0156,23.582 194.3281,21.9258 Q195.6563,20.2695 198.1563,20.2695 Q198.8594,20.2695 199.5,20.4258 Q200.1563,20.582 200.7188,20.8789 L200.7188,23.5977 Q200.0938,23.0195 199.5,22.7539 Q198.9063,22.4727 198.2813,22.4727 Q196.9375,22.4727 196.25,23.5508 Q195.5625,24.6133 195.5625,26.707 Q195.5625,28.8008 196.25,29.8789 Q196.9375,30.9414 198.2813,30.9414 Q198.9063,30.9414 199.5,30.6758 Q200.0938,30.3945 200.7188,29.8164 L200.7188,32.5352 Z " fill="#000000"/><text fill="#D9B8FF" font-family="Helvetica" font-size="17" lengthAdjust="spacing" textLength="71" x="223.25" y="32.7798">resource</text><line style="stroke:#000D19;stroke-width:0.5;" x1="130" x2="355" y1="46.7891" y2="46.7891"/><text fill="#D9B8FF" font-family="sans-serif" font-size="14" font-weight="bold" lengthAdjust="spacing" textLength="29" x="140" y="68.7842">age</text><text fill="#D9B8FF" font-family="sans-serif" font-size="14" lengthAdjust="spacing" textLength="66" x="169" y="68.7842">: duration</text><text fill="#D9B8FF" font-family="sans-serif" font-size="14" font-weight="bold" lengthAdjust="spacing" textLength="43" x="140" y="95.0811">atime</text><text fill="#D9B8FF" font-family="sans-serif" font-size="14" lengthAdjust="spacing" textLength="70" x="183" y="95.0811">: datetime</text><text fill="#D9B8FF" font-family="sans-serif" font-size="14" font-weight="bold" lengthAdjust="spacing" textLength="43" x="140" y="121.3779">ctime</text><text fill="#D9B8FF" font-family="sans-serif" font-size="14" lengthAdjust="spacing" textLength="70" x="183" y="121.3779">: datetime</text><text fill="#D9B8FF" font-family="sans-serif" font-size="14" font-weight="bold" lengthAdjust="spacing" textLength="14" x="140" y="147.6748">id</text><text fill="#D9B8FF" font-family="sans-serif" font-size="14" lengthAdjust="spacing" textLength="48" x="154" y="147.6748">: string</text><text fill="#D9B8FF" font-family="sans-serif" font-size="14" font-weight="bold" lengthAdjust="spacing" textLength="33" x="140" y="173.9717">kind</text><text fill="#D9B8FF" font-family="sans-serif" font-size="14" lengthAdjust="spacing" textLength="48" x="173" y="173.9717">: string</text><text fill="#D9B8FF" font-family="sans-serif" font-size="14" font-weight="bold" lengthAdjust="spacing" textLength="90" x="140" y="200.2686">last_access</text><text fill="#D9B8FF" font-family="sans-serif" font-size="14" lengthAdjust="spacing" textLength="66" x="230" y="200.2686">: duration</text><text fill="#D9B8FF" font-family="sans-serif" font-size="14" font-weight="bold" lengthAdjust="spacing" textLength="90" x="140" y="226.5654">last_update</text><text fill="#D9B8FF" font-family="sans-serif" font-size="14" lengthAdjust="spacing" textLength="66" x="230" y="226.5654">: duration</text><text fill="#D9B8FF" font-family="sans-serif" font-size="14" font-weight="bold" lengthAdjust="spacing" textLength="48" x="140" y="252.8623">mtime</text><text fill="#D9B8FF" font-family="sans-serif" font-size="14" lengthAdjust="spacing" textLength="70" x="188" y="252.8623">: datetime</text><text fill="#D9B8FF" font-family="sans-serif" font-size="14" font-weight="bold" lengthAdjust="spacing" textLength="43" x="140" y="279.1592">name</text><text fill="#D9B8FF" font-family="sans-serif" font-size="14" lengthAdjust="spacing" textLength="48" x="183" y="279.1592">: string</text><text fill="#D9B8FF" font-family="sans-serif" font-size="14" font-weight="bold" lengthAdjust="spacing" textLength="34" x="140" y="305.4561">tags</text><text fill="#D9B8FF" font-family="sans-serif" font-size="14" lengthAdjust="spacing" textLength="171" x="174" y="305.4561">: dictionary[string, string]</text></g><!--reverse link digitalocean_resource to digitalocean_floating_ip--><g id="link_digitalocean_resource_digitalocean_floating_ip"><path codeLine="44" d="M151.19,544.32 C173.11,580.78 201.39,627.81 220.63,659.81 " fill="none" id="digitalocean_resource-backto-digitalocean_floating_ip" style="stroke:#FFAF37;stroke-width:2.0;"/><polygon fill="none" points="144.69,548.1,140.38,527.35,156.69,540.88,144.69,548.1" style="stroke:#FFAF37;stroke-width:2.0;"/></g><!--reverse link ip_address to digitalocean_floating_ip--><g id="link_ip_address_digitalocean_floating_ip"><path codeLine="45" d="M327.33,557.34 C306.47,591.48 281.98,631.57 264.68,659.88 " fill="none" id="ip_address-backto-digitalocean_floating_ip" style="stroke:#FFAF37;stroke-width:2.0;"/><polygon fill="none" points="321.76,554.03,338.16,540.61,333.71,561.33,321.76,554.03" style="stroke:#FFAF37;stroke-width:2.0;"/></g><!--reverse link resource to digitalocean_resource--><g id="link_resource_digitalocean_resource"><path codeLine="46" d="M175.93,337.62 C159.42,380.84 143.34,422.92 132.42,451.52 " fill="none" id="resource-backto-digitalocean_resource" style="stroke:#FFAF37;stroke-width:2.0;"/><polygon fill="none" points="169.73,335.25,183.41,319.06,182.81,340.24,169.73,335.25" style="stroke:#FFAF37;stroke-width:2.0;"/></g><!--reverse link resource to ip_address--><g id="link_resource_ip_address"><path codeLine="47" d="M310.09,337.48 C324.48,374.56 338.55,410.8 349.27,438.43 " fill="none" id="resource-backto-ip_address" style="stroke:#FFAF37;stroke-width:2.0;"/><polygon fill="none" points="303.26,340.24,302.55,319.06,316.31,335.17,303.26,340.24" style="stroke:#FFAF37;stroke-width:2.0;"/></g><!--SRC=[XP91J-Cm48Nl_HMMk5LKQa5Gkk82bH1S48AzhLRHr1wdLXCx6az0XTt_ldPJkcwIjhValS_lZITP6eK2ouhNeiHoWUG7VcLi1GIbk2Do7tDNE19dMeE-dBRD1sVv9F0C9Of7BDwHZOGsyNDfvCgYz-8YiUv1hd9ojLLDF1DO7ooqd53p0ho_OoQpg1cJOTHiSQDrcso7dbsgoVGQEvWZXRH5nkEncipQoCcge_VU4M_c4yKaNTgpO-oCsQdOK4UdZ4GoPEUYt_x16Lz0AMDpSPLehyrCP97szBSbAFSHQGs5Jsiy8w7ZTONppgrmTgFqj1T-EWJBk3cXJ6uO2YSHRAOB1nowCrE9hy5mQ7mMd1MguV27M3XN16Zmj-yaeNSrITmSgyd60pxyIpRVyQRAmXue_fsRxDrhmgPofg4qnRedQQyCSeo8gYcCxcnKs9ID1epnEMYoHpDghpdiRby8NPo1bDiHauQDKrSng-MKFJqM6caNp90tYKR6Oq3hNurtlcL-Xwlsh_VspsWqElZH1icEJv374h-zDlG__Hy0]--></g></svg>

<svg xmlns="http://www.w3.org/2000/svg" width="479" height="741" preserveAspectRatio="none" style="width:479px;height:741px"><rect width="240" height="74.086" x="122.5" y="660.14" fill="#3D176E" rx="2.5" ry="2.5" style="stroke:#000d19;stroke-width:.5"/><circle cx="137.5" cy="680.034" r="11" fill="#ADD1B2" style="stroke:#181818;stroke-width:1"/><path d="M140.469 685.675q-.578.297-1.219.438-.64.156-1.344.156-2.5 0-3.828-1.64-1.312-1.657-1.312-4.782t1.312-4.781q1.328-1.657 3.828-1.657.703 0 1.344.157.656.156 1.219.453v2.719q-.625-.579-1.219-.844-.594-.281-1.219-.281-1.344 0-2.031 1.078-.688 1.062-.688 3.156 0 2.094.688 3.172.688 1.062 2.031 1.062.625 0 1.219-.265.594-.282 1.219-.86v2.72Z"/><text x="156.5" y="685.92" fill="#D9B8FF" font-family="Helvetica" font-size="17" textLength="198">digitalocean_floating_ip</text><path d="M123.5 699.929h238" style="stroke:#000d19;stroke-width:.5"/><text x="133.5" y="721.924" fill="#D9B8FF" font-family="sans-serif" font-size="14" font-weight="bold" textLength="72">is_locked</text><text x="205.5" y="721.924" fill="#D9B8FF" font-family="sans-serif" font-size="14" textLength="65">: boolean</text><rect width="223" height="74.086" x="7" y="451.91" fill="#3D176E" rx="2.5" ry="2.5" style="stroke:#000d19;stroke-width:.5"/><circle cx="22" cy="471.805" r="11" fill="#ADD1B2" style="stroke:#181818;stroke-width:1"/><path d="M24.969 477.445q-.578.297-1.219.438-.64.156-1.344.156-2.5 0-3.828-1.64-1.312-1.657-1.312-4.782t1.312-4.781q1.328-1.656 3.828-1.656.703 0 1.344.156.656.156 1.219.453v2.719q-.625-.578-1.219-.844-.594-.281-1.219-.281-1.343 0-2.031 1.078-.688 1.062-.688 3.156 0 2.094.688 3.172.688 1.062 2.031 1.062.625 0 1.219-.265.594-.281 1.219-.86v2.72Z"/><text x="41" y="477.69" fill="#D9B8FF" font-family="Helvetica" font-size="17" textLength="181">digitalocean_resource</text><path d="M8 491.699h221" style="stroke:#000d19;stroke-width:.5"/><text x="18" y="513.694" fill="#D9B8FF" font-family="sans-serif" font-size="14" font-weight="bold" textLength="27">urn</text><text x="45" y="513.694" fill="#D9B8FF" font-family="sans-serif" font-size="14" textLength="48">: string</text><rect width="208" height="100.383" x="264.5" y="438.76" fill="#3D176E" rx="2.5" ry="2.5" style="stroke:#000d19;stroke-width:.5"/><circle cx="315.75" cy="458.654" r="11" fill="#ADD1B2" style="stroke:#181818;stroke-width:1"/><path d="M318.719 464.295q-.578.297-1.219.438-.64.156-1.344.156-2.5 0-3.828-1.64-1.312-1.657-1.312-4.782t1.312-4.781q1.328-1.656 3.828-1.656.703 0 1.344.156.656.156 1.219.453v2.719q-.625-.579-1.219-.844-.594-.281-1.219-.281-1.344 0-2.031 1.078-.688 1.062-.688 3.156 0 2.094.688 3.172.688 1.062 2.031 1.062.625 0 1.219-.265.594-.281 1.219-.86v2.72Z"/><text x="341.25" y="464.54" fill="#D9B8FF" font-family="Helvetica" font-size="17" textLength="87">ip_address</text><path d="M265.5 478.549h206" style="stroke:#000d19;stroke-width:.5"/><text x="275.5" y="500.544" fill="#D9B8FF" font-family="sans-serif" font-size="14" font-weight="bold" textLength="85">ip_address</text><text x="360.5" y="500.544" fill="#D9B8FF" font-family="sans-serif" font-size="14" textLength="48">: string</text><text x="275.5" y="526.841" fill="#D9B8FF" font-family="sans-serif" font-size="14" font-weight="bold" textLength="138">ip_address_family</text><text x="413.5" y="526.841" fill="#D9B8FF" font-family="sans-serif" font-size="14" textLength="48">: string</text><rect width="227" height="310.758" x="129" y="7" fill="#3D176E" rx="2.5" ry="2.5" style="stroke:#000d19;stroke-width:.5"/><circle cx="197.75" cy="26.895" r="11" fill="#ADD1B2" style="stroke:#181818;stroke-width:1"/><path d="M200.719 32.535q-.578.297-1.219.438-.64.156-1.344.156-2.5 0-3.828-1.64-1.312-1.657-1.312-4.782t1.312-4.781q1.328-1.656 3.828-1.656.703 0 1.344.156.656.156 1.219.453v2.719q-.625-.578-1.219-.844-.594-.281-1.219-.281-1.344 0-2.031 1.078-.688 1.062-.688 3.156 0 2.094.688 3.172.688 1.062 2.031 1.062.625 0 1.219-.265.594-.281 1.219-.86v2.72Z"/><text x="223.25" y="32.78" fill="#D9B8FF" font-family="Helvetica" font-size="17" textLength="71">resource</text><path d="M130 46.789h225" style="stroke:#000d19;stroke-width:.5"/><text x="140" y="68.784" fill="#D9B8FF" font-family="sans-serif" font-size="14" font-weight="bold" textLength="29">age</text><text x="169" y="68.784" fill="#D9B8FF" font-family="sans-serif" font-size="14" textLength="66">: duration</text><text x="140" y="95.081" fill="#D9B8FF" font-family="sans-serif" font-size="14" font-weight="bold" textLength="43">atime</text><text x="183" y="95.081" fill="#D9B8FF" font-family="sans-serif" font-size="14" textLength="70">: datetime</text><text x="140" y="121.378" fill="#D9B8FF" font-family="sans-serif" font-size="14" font-weight="bold" textLength="43">ctime</text><text x="183" y="121.378" fill="#D9B8FF" font-family="sans-serif" font-size="14" textLength="70">: datetime</text><text x="140" y="147.675" fill="#D9B8FF" font-family="sans-serif" font-size="14" font-weight="bold" textLength="14">id</text><text x="154" y="147.675" fill="#D9B8FF" font-family="sans-serif" font-size="14" textLength="48">: string</text><text x="140" y="173.972" fill="#D9B8FF" font-family="sans-serif" font-size="14" font-weight="bold" textLength="33">kind</text><text x="173" y="173.972" fill="#D9B8FF" font-family="sans-serif" font-size="14" textLength="48">: string</text><text x="140" y="200.269" fill="#D9B8FF" font-family="sans-serif" font-size="14" font-weight="bold" textLength="90">last_access</text><text x="230" y="200.269" fill="#D9B8FF" font-family="sans-serif" font-size="14" textLength="66">: duration</text><text x="140" y="226.565" fill="#D9B8FF" font-family="sans-serif" font-size="14" font-weight="bold" textLength="90">last_update</text><text x="230" y="226.565" fill="#D9B8FF" font-family="sans-serif" font-size="14" textLength="66">: duration</text><text x="140" y="252.862" fill="#D9B8FF" font-family="sans-serif" font-size="14" font-weight="bold" textLength="48">mtime</text><text x="188" y="252.862" fill="#D9B8FF" font-family="sans-serif" font-size="14" textLength="70">: datetime</text><text x="140" y="279.159" fill="#D9B8FF" font-family="sans-serif" font-size="14" font-weight="bold" textLength="43">name</text><text x="183" y="279.159" fill="#D9B8FF" font-family="sans-serif" font-size="14" textLength="48">: string</text><text x="140" y="305.456" fill="#D9B8FF" font-family="sans-serif" font-size="14" font-weight="bold" textLength="34">tags</text><text x="174" y="305.456" fill="#D9B8FF" font-family="sans-serif" font-size="14" textLength="171">: dictionary[string, string]</text><path fill="none" d="M151.19 544.32c21.92 36.46 50.2 83.49 69.44 115.49M144.69 548.1l-4.31-20.75 16.31 13.53-12 7.22z" style="stroke:#ffaf37;stroke-width:2"/><g fill="none"><path d="M327.33 557.34c-20.86 34.14-45.35 74.23-62.65 102.54" style="stroke:#ffaf37;stroke-width:2"/><path d="m321.76 554.03 16.4-13.42-4.45 20.72-11.95-7.3z" style="stroke:#ffaf37;stroke-width:2"/></g><path fill="none" d="M175.93 337.62c-16.51 43.22-32.59 85.3-43.51 113.9m37.31-116.27 13.68-16.19-.6 21.18-13.08-4.99z" style="stroke:#ffaf37;stroke-width:2"/><g fill="none"><path d="M310.09 337.48c14.39 37.08 28.46 73.32 39.18 100.95" style="stroke:#ffaf37;stroke-width:2"/><path d="m303.26 340.24-.71-21.18 13.76 16.11-13.05 5.07z" style="stroke:#ffaf37;stroke-width:2"/></g></svg>
